X: 10939
T: Drummer, The
R: reel
M: 4/4
K: Adorian
M:2/4
|:E|AA/B/ cA|E2- EF|G2 GA|B>c d/c/B/G/|
A>B c/B/A|E2- E=f|ed cB|A2- A:|
|:B|c2 ce|d>c de|c>B ce|d/c/B/A/ G2|
c>B ce|d>^c d=f|ed cB|A2- A:|

